X: 2073
T: Âşıka Bağdat Sorulmaz
C: Münir Nurettin Selçuk
O: Turkey
F: http://compmusic.upf.edu/node/140
N: mahur--sarki--semai--asika_bagdat--munir_nurettin_selcuk
N: makam= mahur
N: form= sarki
N: usul= semai = 3/4
M: 3/4
L: 1/16
K: C ^9/8f   
Q: 1/4=156
%%MIDI tuningsystem comma53
g4 {a}g2a2 g2a2  | g12  | d4 {e}d2e2 d2e2  | d12  | \
w:  ARANAĞME  |   |   |   | 
B2c2 d2c2 B4  | A2B2 c2B2 A4  | 
w:   |   | 
G2A2 B2c2 d2e2  | f2g2 b2a2 g4  | g4 {a}g2a2 g2a2  | g12  | \
w:   |   |  ARANAĞME  |   | 
d4 {e}d2e2 d2e2  | 
w:   | 
d12  | B2c2 d2c2 B4  | A2B2 c2B2 A4  | G4 B4 d4  | G12  | \
w:   |   |   |   |   | 
g8 g4  | g4 g8  | f8 d4  | 
w:  Â şı  |  ka  Bağ  |  dat  so  | 
e8 e2d2  | d12  | e2f2 e2f2 e2f2  | d12  | \
w:  rul  |  maz    |  SAZ  |   | 
g4 g8  | g4 f8  | e4 d8  | e2d2 e4 f4  | 
w:  U fuk  |  la rı   |  a şar   |  *  *  *  gi  | 
g12  | g8 z4  | g4 f2e2 d2c2  | B2c2 A2B2 G4  | \
w:  der    |   |  SAZ  |   | 
g8 g4  | g4 g8  | f8 d4  | e8 e2d2  | 
w:  Â şı  |  ka  Bağ  |  dat  so  |  rul  | 
d12  | e2f2 e2f2 e2f2  | d12  | d4 d8  | c'4 b8  | \
w:  maz    |  SAZ  |   |  U fuk  |  la rı   | 
a4 g8  | f4 e8  | f4 g8  | g12  | d2e2 f2g2 a2b2  | 
w:  a şar   |   |  gi der    |   |  SAZ  | 
c'2b2 a2b2 g4  | f4 g8  | a8 a4  | c'4 b4 a4  | \
w:   |  Ü mit   |  yol cu  |  su  *  yo  | 
g4 f4 g4  | e12  | e12  | a12  | a12  | a8 a2g2  | 
w:  rul  |  maz    |   |   |   |  Baht  i  | 
g8 f4  | f8 d4  | e8 e2d2  | d12  | d8 z4  | d2e2 f2g2 a2g2  | \
w:  zin  |  de  ko  |  şar  gi  |  der    |   |  SAZ  | 
f2g2 e2f2 d4  | 
w:   | 
d4 d8  | a4 g4 =f4  | =f4 e4 d4  | c4 B4 c4  | A12  | A12  | e12  | g12  | \
w:  Ü mit   |  yol *  cu  |  su  *  yo  |  rul  |  maz    |   |   |   | 
d8 e4  | c8 d4  | B8 c4  | 
w:  Baht  i  |  zin  |  de  ko  | 
A8 B4  | G12  | G8 z4  | z2g2 f2e2 d2c2  | \
w:  şar  gi  |  der    |   |  SAZ  | 
B2c2 A2B2 G4  | g4 {a}g2a2 g2a2  | 
w:   |  ARANAĞME  | 
g12  | d4 {e}d2e2 d2e2  | d12  | B2c2 d2c2 B4  | \
w:   |   |   |   | 
A2B2 c2B2 A4  | G2A2 B2c2 d2e2  | 
w:   |   | 
f2g2 b2a2 g4  | g4 {a}g2a2 g2a2  | g12  | \
w:   |  ARANAĞME  |   | 
d4 {e}d2e2 d2e2  | d12  | B2c2 d2c2 B4  | 
w:   |   |   | 
A2B2 c2B2 A4  | G4 B4 d4  | b12  | b4 b8  | \
w:   |   |   |  Sev da  | 
b4 b8  | b8 d'4  | c'4 b4 ^a4  | b12  | b12  | d'12  | 
w:  ya  kar  |  şı  du  |  rul  |  maz    |   |   | 
d'12  | d'2d'2 c'8  | c'4 c'4 b4  | b8 a4  | \
w:   |  Gö *  nül  |  ler  |  de  ya   | 
g8 a4  | b12  | b8 z4  | b2c'2 d'2e'2 d'2c'2  | \
w:  şar  gi  |  der    |   |  SAZ  | 
b2c'2 a2b2 g4  | 
w:   | 
b4 b8  | b4 b8  | b8 d'4  | c'4 b4 c'4  | a12  | a12  | e'12  | e'12  | \
w:  Sev da  |  ya  kar  |  şı  du  |  rul  |  maz    |   |   |   | 
d'4 c'8  | c'8 a4  | g8 f4  | e8 f4  | 
w:  Gö nül  |  ler  |  de  ya   |  şar  gi  | 
g12  | g8 z4  | d2e2 f2g2 a2b2  | c'2b2 a2b2 g4  | \
w:  der    |   |  SAZ  |   | 
f4 g8  | a8 a4  | c'4 b4 a4  | 
w:  Ü mit   |  yol cu  |  su  *  yo  | 
g4 _g4 =g4  | e12  | e12  | a12  | a12  | a8 b4  | \
w:  rul  |  maz    |   |   |   |  Baht  i  | 
g8 a4  | f8 d4  | e8 f2e2  | d12  | d8 z4  | d2e2 f2g2 a2g2  | 
w:  zin  |  de  ko  |  şar  gi gi  |  der    |   |  SAZ  | 
f2g2 e2f2 d4  | d4 d8  | a4 g4 =f4  | =f4 e4 d4  | \
w:   |  Ü mit   |  yol *  cu  |  su  *  yo  | 
c4 B4 c4  | A12  | A12  | e12  | g12  | d8 e4  | 
w:  rul  |  maz    |   |   |   |  Baht  i  | 
c8 d4  | B8 c4  | A8 B4  | G4 g2a2 g2a2  | g12  | \
w:  zin  |  de  ko  |  şar  gi  |  der   SAZ  |   | 
d4 d2e2 d2e2  | d12  | B2c2 d2c2 B4  | 
w:   |   |   | 
A2B2 c2B2 A4  | G4 B4 d4  | .g4 z8  | |


